X: 89
% Old value - X: 2
T: The Salvation
R: reel
M: 4/4
S: Jackie Lamb
L: 1/8
K: Amaj
EGAE GAEG | AecA BAFA | B3B- BAFA | dAcA BAFA |
EGAE GAEG | AecA BAFA | BccA BcAF | EFAB cA~A2 :|
|:BceB ceBc | effe cBBe | f3f- fece | agae fecB |
cdec defg | agae fece | fecA B2AB | cBAE FAE2 :||

